packages/icons/src/components/Logo/assets/light/alpine-linux.svg

<svg width="20" height="20" viewBox="0 0 20 20" fill="none" xmlns="http://www.w3.org/2000/svg">
<path d="M16.0684 17.2893C15.8793 16.965 15.8798 16.3097 16.0696 15.9664C16.1525 15.8163 16.4044 15.4831 17.5039 15.4831C17.7299 15.4831 17.8953 15.4946 18.0171 15.5111C18.284 15.547 18.4872 15.6379 18.4872 15.8865C18.4872 16.2147 18.0035 16.2177 18.0035 16.2177H16.9786C16.5433 16.2177 16.51 16.8197 16.51 16.8197H18.0035C18.5281 16.8197 19.0717 16.5846 19.0717 15.8964C19.0717 15.439 18.8084 15.1311 18.3785 15.0132C17.9488 14.8952 17.7813 14.9016 17.1957 14.9121C16.7268 14.9205 16.4567 15.0234 16.2861 15.0769C15.987 15.1708 15.7191 15.3459 15.5385 15.6729C15.2443 16.2052 15.247 17.0855 15.5443 17.595C15.8621 18.1398 16.407 18.4314 17.0657 18.4319H19.0717L19.0718 17.828H17.0636C16.4854 17.8297 16.1984 17.5122 16.0684 17.2893Z" fill="#0D597F"/>
<path d="M3.68717 15.0135C3.15487 14.7193 2.27457 14.722 1.76502 15.0193C1.03769 15.4436 0.761751 16.2726 1.02707 17.237C1.16324 17.732 1.53095 18.0967 2.09046 18.2916C2.48578 18.4292 2.84955 18.4332 2.86462 18.4333L2.86386 17.8265C2.8534 17.8264 1.81432 17.8111 1.61211 17.076C1.35119 16.1275 1.78747 15.7087 2.07079 15.5434C2.39507 15.3543 3.05035 15.3548 3.39364 15.5446C3.75832 15.7461 3.78466 16.1664 3.78466 16.8347V18.0663C3.78466 18.5016 4.39145 18.5301 4.39145 18.5301V16.8347C4.39145 16.1966 4.39145 15.4027 3.68717 15.0135Z" fill="#0D597F"/>
<path d="M11.5592 18.4316V16.5402C11.5598 15.8815 11.8513 15.3366 12.3961 15.0188C12.9057 14.7216 13.7859 14.7189 14.3183 15.013C15.0225 15.4022 15.0225 16.1962 15.0225 16.8342V18.5276C15.0225 18.5276 14.4157 18.4991 14.4157 18.0639V16.8342C14.4157 16.1659 14.3894 15.7456 14.0247 15.5441C13.6814 15.3543 13.0261 15.3538 12.7019 15.5429C12.479 15.6729 12.1614 15.9599 12.1631 16.5382V18.4317L11.5592 18.4316Z" fill="#0D597F"/>
<path d="M10.6602 18.4317V15.5629C10.6602 15.5629 11.2622 15.5962 11.2622 16.0315V18.4317H10.6602Z" fill="#0D597F"/>
<path d="M11.2622 14.9686V15.5349C11.2622 15.5349 10.6602 15.5016 10.6602 15.0663V14.9686H11.2622Z" fill="#0D597F"/>
<path d="M7.60414 15.0279C8.13644 14.7337 9.01674 14.7364 9.52629 15.0337C10.2536 15.458 10.5296 16.287 10.2642 17.2514C10.1281 17.7464 9.76035 18.1111 9.20085 18.3059C8.80552 18.4436 8.44201 18.4297 8.42694 18.4298L8.42745 17.8281C8.43791 17.828 9.47699 17.8254 9.6792 17.0904C9.94012 16.1419 9.50384 15.723 9.22052 15.5578C8.89624 15.3687 8.24096 15.3692 7.89767 15.5589C7.53299 15.7605 7.50665 16.1808 7.50665 16.849V17.4868C7.50665 17.922 6.89986 17.9504 6.89986 17.9504V16.849C6.89986 16.211 6.89986 15.4171 7.60414 15.0279Z" fill="#0D597F"/>
<path d="M7.50182 19.986V17.9798C7.50182 17.9798 6.89988 18.013 6.89988 18.4483V19.986H7.50182Z" fill="#0D597F"/>
<path d="M5.2759 13.4553V15.5552C5.2759 15.5552 4.67397 15.5219 4.67397 15.0867V13.4553H5.2759Z" fill="#0D597F"/>
<path d="M5.35738 17.0776C5.30484 16.8866 5.28057 16.7171 5.27764 16.5668L5.27592 16.0483C5.27592 15.613 4.67353 15.5845 4.67353 15.5845V16.5637C4.6754 16.7781 4.70791 17.0043 4.77233 17.2386C4.90851 17.7336 5.27627 18.0983 5.83573 18.2931C6.23105 18.4308 6.59381 18.4318 6.60883 18.4319L6.60913 17.8281C6.59866 17.828 5.55959 17.8126 5.35738 17.0776Z" fill="#0D597F"/>
<path d="M7.85278 8.34677V6.71659L6.67891 7.89171C6.80538 7.97973 6.92457 8.05205 7.0367 8.11087C7.14883 8.16979 7.25379 8.21531 7.35158 8.24992C7.44937 8.28463 7.54009 8.30832 7.62353 8.3237C7.70708 8.33897 7.78346 8.34583 7.85278 8.34677ZM13.8542 8.21126C13.8563 8.21303 13.8677 8.22269 13.8888 8.2361C13.91 8.2496 13.941 8.26696 13.9821 8.28411C14.0232 8.30115 14.0745 8.31809 14.1364 8.33066C14.1984 8.34334 14.2709 8.35165 14.3545 8.35165C14.4242 8.35165 14.5011 8.34552 14.5854 8.33087C14.6698 8.31611 14.7613 8.29273 14.8602 8.25823C14.9593 8.22362 15.0656 8.1779 15.1793 8.11856C15.293 8.05912 15.414 7.98596 15.5425 7.89659L14.6517 7.02398L11.6993 4.06063L10.4039 5.3564L8.65638 3.55434L4.27059 7.89056C4.39893 7.97994 4.51979 8.05309 4.63337 8.11254C4.74695 8.17187 4.85316 8.2176 4.95209 8.2522C5.05092 8.2867 5.14247 8.31009 5.22675 8.32474C5.31092 8.33949 5.38782 8.34563 5.45745 8.34563C5.541 8.34563 5.61353 8.33731 5.67537 8.32463C5.7373 8.31206 5.78853 8.29512 5.82969 8.27797C5.87084 8.26093 5.9017 8.24358 5.9229 8.23007C5.9441 8.21656 5.95553 8.20689 5.95761 8.20513L7.93747 6.22526L8.64547 5.54636L10.606 7.5069L11.2909 8.21126C11.293 8.21303 11.3044 8.22269 11.3256 8.2361C11.3468 8.2496 11.3777 8.26696 11.4189 8.28411C11.46 8.30115 11.5113 8.31809 11.5732 8.33066C11.6351 8.34334 11.7078 8.35165 11.7913 8.35165C11.8609 8.35165 11.9379 8.34552 12.0222 8.33087C12.1065 8.31611 12.1981 8.29273 12.2971 8.25823C12.396 8.22362 12.5023 8.1779 12.616 8.11856C12.7297 8.05912 12.8508 7.98596 12.9792 7.89659L11.406 6.35599L11.6988 6.06315L13.0603 7.42459L13.8542 8.21126ZM13.8373 0L17.705 6.7009L13.8373 13.4018H6.09915L2.23139 6.7009L6.09915 0H13.8373Z" fill="#0D597F"/>
<path d="M11.4239 6.37447L10.3938 5.34619L10.467 5.27251L11.5045 6.29861L11.4239 6.37447Z" fill="#0D597F"/>
<path d="M8.0613 19.5507V18.4301H7.96017V19.5507C7.96017 19.7679 8.12956 20 8.60488 20H9.376V19.8989H8.60488C8.10049 19.8989 8.0613 19.6324 8.0613 19.5507Z" fill="#0D597F"/>
<path d="M9.71172 20H9.81285V18.8478H9.71172V20Z" fill="#0D597F"/>
<path d="M9.71172 18.786H9.81285V18.6347H9.71172V18.786Z" fill="#0D597F"/>
<path d="M14.9478 18.8477H14.8146L14.3864 19.3477L13.9575 18.8477H13.8243L14.3197 19.4256L13.8277 20H13.9602L14.3861 19.5031L14.812 20H14.9458L14.4528 19.4252L14.9478 18.8477Z" fill="#0D597F"/>
<path d="M13.4172 19.557C13.4172 19.592 13.3986 19.8989 12.7566 19.8989C12.1208 19.8989 12.1024 19.592 12.1024 19.557V18.8478H12.0013V19.557C12.0013 19.6024 12.0225 20 12.7566 20C13.4969 20 13.5183 19.6024 13.5183 19.557V18.8478H13.4172V19.557Z" fill="#0D597F"/>
<path d="M10.9103 18.8477C10.17 18.8477 10.1486 19.2453 10.1486 19.2907V20H10.2497V19.2907C10.2497 19.2557 10.2683 18.9489 10.9103 18.9489C11.5461 18.9489 11.5645 19.2557 11.5645 19.2907V20H11.6656V19.2907C11.6656 19.2453 11.6444 18.8477 10.9103 18.8477Z" fill="#0D597F"/>
</svg>

<svg xmlns="http://www.w3.org/2000/svg" width="20" height="20" fill="none" viewBox="0 0 20 20">
    <path fill="#0d597f" d="M16.068 17.29c-.189-.325-.188-.98.002-1.324.082-.15.334-.483 1.434-.483.226 0 .391.012.513.028.267.036.47.127.47.376 0 .328-.483.33-.483.33h-1.025c-.436 0-.469.603-.469.603h1.493c.525 0 1.069-.235 1.069-.924 0-.457-.264-.765-.694-.883s-.597-.111-1.182-.1c-.47.008-.74.11-.91.164a1.24 1.24 0 0 0-.748.596c-.294.532-.291 1.412.006 1.922.318.545.863.836 1.522.837h2.006v-.604h-2.008c-.579.002-.866-.316-.996-.539M3.687 15.014c-.532-.295-1.412-.292-1.922.005-.727.425-1.003 1.254-.738 2.218.136.495.504.86 1.063 1.055.396.137.76.141.775.141l-.001-.607c-.01 0-1.05-.015-1.252-.75-.26-.948.175-1.367.459-1.533.324-.189.98-.188 1.323.002.364.201.39.621.39 1.29v1.231c0 .436.607.464.607.464v-1.695c0-.638 0-1.432-.704-1.822m7.873 3.419V16.54c0-.658.291-1.203.836-1.521.51-.297 1.39-.3 1.922-.006.705.39.705 1.183.705 1.821v1.694s-.607-.029-.607-.464v-1.23c0-.668-.027-1.088-.391-1.29-.344-.19-.999-.19-1.323-.001-.223.13-.54.417-.539.995v1.894zm-.9 0v-2.87s.602.034.602.47v2.4zm.602-3.463v.566s-.602-.033-.602-.469v-.097zm-3.658.059c.532-.294 1.413-.292 1.922.006.728.424 1.004 1.253.738 2.217-.136.495-.504.86-1.063 1.055-.395.138-.759.124-.774.124v-.602c.01 0 1.05-.003 1.252-.738.261-.948-.175-1.367-.458-1.532-.325-.19-.98-.189-1.323 0-.365.203-.391.623-.391 1.291v.638c0 .435-.607.463-.607.463v-1.1c0-.638 0-1.432.704-1.821"/>
    <path fill="#0d597f" d="M7.502 19.986V17.98s-.602.033-.602.468v1.538zm-2.226-6.531v2.1s-.602-.033-.602-.468v-1.632zm.081 3.623a2 2 0 0 1-.08-.511l-.001-.519c0-.435-.602-.463-.602-.463v.979q.002.322.098.675c.137.495.504.86 1.064 1.054.395.138.758.139.773.139v-.604c-.01 0-1.05-.015-1.252-.75m2.496-8.731v-1.63L6.679 7.892q.19.131.358.219.168.087.315.139.146.051.272.074.125.022.229.023m6.001-.136q.003.004.035.025t.093.048a1 1 0 0 0 .154.047q.093.019.219.02.104.001.23-.02a2 2 0 0 0 .275-.073q.15-.05.32-.14.17-.088.363-.221l-.891-.873-2.953-2.963-1.295 1.295-1.748-1.802-4.385 4.337q.192.133.362.222.17.088.32.14.148.05.274.072.126.02.23.02.126-.001.218-.02a.8.8 0 0 0 .248-.095l.035-.025 1.98-1.98.707-.679 1.961 1.96.685.705q.003.004.035.025a.8.8 0 0 0 .248.095q.092.019.217.02.105.001.231-.02.127-.021.275-.073.148-.05.319-.14.171-.088.363-.221l-1.573-1.541.293-.293 1.361 1.362zM13.837 0l3.868 6.7-3.868 6.702H6.1L2.231 6.7 6.1 0z"/>
    <path fill="#0d597f" d="m11.424 6.374-1.03-1.028.073-.073 1.037 1.026zM8.061 19.55v-1.12h-.1v1.12c0 .218.169.45.644.45h.771v-.101h-.771c-.505 0-.544-.267-.544-.348M9.712 20h.1v-1.152h-.1zm0-1.214h.1v-.151h-.1zm5.236.062h-.133l-.429.5-.428-.5h-.134l.496.578-.492.574h.132l.426-.497.426.497h.134l-.493-.575zm-1.531.709c0 .035-.018.342-.66.342-.636 0-.655-.307-.655-.342v-.71h-.1v.71c0 .045.02.443.755.443.74 0 .761-.398.761-.443v-.71h-.1zm-2.507-.709c-.74 0-.761.397-.761.443V20h.1v-.71c0-.034.02-.341.661-.341.636 0 .655.307.655.342V20h.1v-.71c0-.045-.02-.442-.755-.442"/>
</svg>
